file/siemens.svg

<svg clip-rule="evenodd" fill-rule="evenodd" stroke-linejoin="round" stroke-miterlimit="1.41421" viewBox="0 0 560 400" xmlns="http://www.w3.org/2000/svg"><g fill="#099" transform="matrix(.720973 0 0 .720973 30 -518.948)"><path d="m685.398 945.893v20.653c-10.7-4.039-20.226-6.081-28.564-6.081-4.939 0-8.872.914-11.828 2.682-2.958 1.784-4.467 3.979-4.467 6.57 0 3.445 3.338 6.508 10.06 9.252l19.419 9.451c15.701 7.484 23.489 17.42 23.489 29.91 0 10.38-4.13 18.65-12.468 24.78-8.277 6.19-19.419 9.25-33.29 9.25-6.402 0-12.148-.27-17.254-.85-5.107-.55-10.975-1.68-17.484-3.29v-21.62c11.935 4.04 22.803 6.08 32.589 6.08 11.676 0 17.483-3.38 17.483-10.21 0-3.4-2.378-6.14-7.209-8.29l-21.569-9.19c-7.956-3.6-13.871-7.958-17.742-13.126-3.811-5.212-5.747-11.188-5.747-18.016 0-9.558 4.024-17.255 11.981-23.108 8.018-5.808 18.657-8.719 31.887-8.719 4.299 0 9.253.381 14.74 1.082 5.533.747 10.853 1.662 15.974 2.79z"/><path d="m74.536 945.893v20.653c-10.7-4.039-20.211-6.081-28.549-6.081-4.954 0-8.871.914-11.828 2.682-2.957 1.784-4.466 3.979-4.466 6.57 0 3.445 3.383 6.508 10.105 9.252l19.42 9.451c15.638 7.484 23.443 17.42 23.443 29.91 0 10.38-4.146 18.65-12.423 24.78-8.338 6.19-19.419 9.25-33.336 9.25-6.402 0-12.163-.27-17.27-.85-5.106-.55-10.913-1.68-17.467-3.29v-21.62c11.98 4.04 22.848 6.08 32.573 6.08 11.676 0 17.483-3.38 17.483-10.21 0-3.4-2.362-6.14-7.149-8.29l-21.568-9.19c-8.018-3.6-13.932-7.958-17.742-13.126-3.872-5.212-5.762-11.188-5.762-18.016 0-9.558 3.994-17.255 11.996-23.108 7.957-5.808 18.611-8.719 31.842-8.719 4.344 0 9.237.381 14.785 1.082 5.487.747 10.807 1.662 15.913 2.79z"/><g transform="matrix(3.54331 0 0 3.54331 -23.692 909.232)"><path d="m42.929 9.8v30.048h-8.926v-30.048z"/><path d="m71.958 39.848h-22.124v-30.048h21.853v5.554h-13.263v6.663h11.503v5.008h-11.503v6.994h13.534z"/><path d="m76.892 39.848v-30.048h10.896l7.438 18.395 7.782-18.395h10.35v30.048h-8.333v-19.818l-8.646 20.094h-5.145l-8.315-20.094v19.818z"/><path d="m142.374 39.848h-22.124v-30.048h21.853v5.554h-13.19v6.663h11.503v5.008h-11.503v6.994h13.461z"/><path d="m173.424 39.848h-9.468l-10.625-19.272v19.272h-6.023v-30.048h9.744l10.35 18.941v-18.941h6.022z"/></g></g></svg>

<?xml version="1.0" encoding="UTF-8" standalone="no"?>
<!DOCTYPE svg PUBLIC "-//W3C//DTD SVG 1.1//EN" "http://www.w3.org/Graphics/SVG/1.1/DTD/svg11.dtd">
<svg width="100%" height="100%" viewBox="0 0 560 400" version="1.1" xmlns="http://www.w3.org/2000/svg" xmlns:xlink="http://www.w3.org/1999/xlink" xml:space="preserve" xmlns:serif="http://www.serif.com/" style="fill-rule:evenodd;clip-rule:evenodd;stroke-linejoin:round;stroke-miterlimit:1.41421;">
    <g transform="matrix(0.720973,0,0,0.720973,30,-518.948)">
        <path id="path4166" d="M685.398,945.893L685.398,966.546C674.698,962.507 665.172,960.465 656.834,960.465C651.895,960.465 647.962,961.379 645.006,963.147C642.048,964.931 640.539,967.126 640.539,969.717C640.539,973.162 643.877,976.225 650.599,978.969L670.018,988.42C685.719,995.904 693.507,1005.84 693.507,1018.33C693.507,1028.71 689.377,1036.98 681.039,1043.11C672.762,1049.3 661.62,1052.36 647.749,1052.36C641.347,1052.36 635.601,1052.09 630.495,1051.51C625.388,1050.96 619.52,1049.83 613.011,1048.22L613.011,1026.6C624.946,1030.64 635.814,1032.68 645.6,1032.68C657.276,1032.68 663.083,1029.3 663.083,1022.47C663.083,1019.07 660.705,1016.33 655.874,1014.18L634.305,1004.99C626.349,1001.39 620.434,997.032 616.563,991.864C612.752,986.652 610.816,980.676 610.816,973.848C610.816,964.29 614.84,956.593 622.797,950.74C630.815,944.932 641.454,942.021 654.684,942.021C658.983,942.021 663.937,942.402 669.424,943.103C674.957,943.85 680.277,944.765 685.398,945.893Z" style="fill:rgb(0,153,153);"/>
        <path id="path4168" d="M74.536,945.893L74.536,966.546C63.836,962.507 54.325,960.465 45.987,960.465C41.033,960.465 37.116,961.379 34.159,963.147C31.202,964.931 29.693,967.126 29.693,969.717C29.693,973.162 33.076,976.225 39.798,978.969L59.218,988.42C74.856,995.904 82.661,1005.84 82.661,1018.33C82.661,1028.71 78.515,1036.98 70.238,1043.11C61.9,1049.3 50.819,1052.36 36.902,1052.36C30.5,1052.36 24.739,1052.09 19.632,1051.51C14.526,1050.96 8.719,1049.83 2.165,1048.22L2.165,1026.6C14.145,1030.64 25.013,1032.68 34.738,1032.68C46.414,1032.68 52.221,1029.3 52.221,1022.47C52.221,1019.07 49.859,1016.33 45.072,1014.18L23.504,1004.99C15.486,1001.39 9.572,997.032 5.762,991.864C1.89,986.652 0,980.676 0,973.848C0,964.29 3.994,956.593 11.996,950.74C19.953,944.932 30.607,942.021 43.838,942.021C48.182,942.021 53.075,942.402 58.623,943.103C64.11,943.85 69.43,944.765 74.536,945.893Z" style="fill:rgb(0,153,153);"/>
        <g id="polygon4170" transform="matrix(3.54331,0,0,3.54331,-23.692,909.232)">
            <path d="M42.929,9.8L42.929,39.848L34.003,39.848L34.003,9.8L42.929,9.8Z" style="fill:rgb(0,153,153);"/>
        </g>
        <g id="polygon4172" transform="matrix(3.54331,0,0,3.54331,-23.692,909.232)">
            <path d="M71.958,39.848L49.834,39.848L49.834,9.8L71.687,9.8L71.687,15.354L58.424,15.354L58.424,22.017L69.927,22.017L69.927,27.025L58.424,27.025L58.424,34.019L71.958,34.019L71.958,39.848Z" style="fill:rgb(0,153,153);"/>
        </g>
        <g id="polygon4174" transform="matrix(3.54331,0,0,3.54331,-23.692,909.232)">
            <path d="M76.892,39.848L76.892,9.8L87.788,9.8L95.226,28.195L103.008,9.8L113.358,9.8L113.358,39.848L105.025,39.848L105.025,20.03L96.379,40.124L91.234,40.124L82.919,20.03L82.919,39.848L76.892,39.848Z" style="fill:rgb(0,153,153);"/>
        </g>
        <g id="polygon4176" transform="matrix(3.54331,0,0,3.54331,-23.692,909.232)">
            <path d="M142.374,39.848L120.25,39.848L120.25,9.8L142.103,9.8L142.103,15.354L128.913,15.354L128.913,22.017L140.416,22.017L140.416,27.025L128.913,27.025L128.913,34.019L142.374,34.019L142.374,39.848Z" style="fill:rgb(0,153,153);"/>
        </g>
        <g id="polygon4178" transform="matrix(3.54331,0,0,3.54331,-23.692,909.232)">
            <path d="M173.424,39.848L163.956,39.848L153.331,20.576L153.331,39.848L147.308,39.848L147.308,9.8L157.052,9.8L167.402,28.741L167.402,9.8L173.424,9.8L173.424,39.848Z" style="fill:rgb(0,153,153);"/>
        </g>
    </g>
</svg>
